packages/tokens/icons/plug/size24Px.svg

<svg viewBox="0 0 24 24" fill="none" xmlns="http://www.w3.org/2000/svg" width="1em" height="1em"><path d="M5.5 5.5L3.01768 3.01748" stroke="currentColor" stroke-linecap="round"/><path d="M5.93512 13.209C5.03742 12.1508 4.35299 10.9348 4.21028 9.67957C4.07085 8.45311 4.44033 7.12322 5.78185 5.7817C7.12337 4.44018 8.45326 4.0707 9.67972 4.21013C10.9349 4.35284 12.151 5.03727 13.2091 5.93497C13.386 6.08502 13.4107 6.38098 13.2065 6.58523L6.58538 13.2063C6.38113 13.4106 6.08517 13.3858 5.93512 13.209Z" stroke="currentColor" stroke-linejoin="round"/><path d="M9.4942 13.4153C9.68946 13.6106 10.006 13.6106 10.2013 13.4153C10.3966 13.22 10.3966 12.9034 10.2013 12.7082L9.4942 13.4153ZM12.7082 10.2009C12.9034 10.3962 13.22 10.3962 13.4153 10.2009C13.6105 10.0057 13.6105 9.68909 13.4153 9.49383L12.7082 10.2009ZM10.2013 12.7082L8.99621 11.5031L8.2891 12.2102L9.4942 13.4153L10.2013 12.7082ZM13.4153 9.49383L12.2102 8.28873L11.5031 8.99584L12.7082 10.2009L13.4153 9.49383Z" fill="currentColor"/><path d="M18 18L20.6954 20.6954" stroke="currentColor" stroke-linecap="round"/><path d="M10.5039 17.7778C11.562 18.6755 12.7781 19.3599 14.0333 19.5026C15.2598 19.642 16.5897 19.2726 17.9312 17.931C19.2727 16.5895 19.6422 15.2596 19.5028 14.0332C19.36 12.7779 18.6756 11.5619 17.7779 10.5038C17.6279 10.3269 17.3319 10.3022 17.1277 10.5064L10.5066 17.1275C10.3023 17.3318 10.327 17.6277 10.5039 17.7778Z" stroke="currentColor" stroke-linejoin="round"/></svg>

<svg xmlns="http://www.w3.org/2000/svg" fill="none" viewBox="0 0 24 24" width="1em" height="1em"><path stroke="currentColor" stroke-linecap="round" d="M5.5 5.5 3.018 3.017"/><path stroke="currentColor" stroke-linejoin="round" d="M5.935 13.209c-.898-1.058-1.582-2.274-1.725-3.53-.14-1.226.23-2.556 1.572-3.897C7.123 4.44 8.453 4.07 9.68 4.21c1.255.143 2.471.827 3.53 1.725.176.15.2.446-.004.65l-6.62 6.621c-.205.205-.5.18-.65.003Z"/><path fill="currentColor" d="M9.494 13.415a.5.5 0 1 0 .707-.707l-.707.707Zm3.214-3.214a.5.5 0 1 0 .707-.707l-.707.707Zm-2.507 2.507-1.205-1.205-.707.707 1.205 1.205.707-.707Zm3.214-3.214L12.21 8.289l-.707.707 1.205 1.205.707-.707Z"/><path stroke="currentColor" stroke-linecap="round" d="m18 18 2.695 2.695"/><path stroke="currentColor" stroke-linejoin="round" d="M10.504 17.778c1.058.898 2.274 1.582 3.53 1.725 1.226.139 2.556-.23 3.897-1.572 1.342-1.341 1.711-2.671 1.572-3.898-.143-1.255-.827-2.471-1.725-3.53-.15-.176-.446-.2-.65.003l-6.621 6.622c-.205.204-.18.5-.003.65Z"/></svg>
